; G-Code generated by Simplify3D(R) Version 4.1.2
; Sep 14, 2020 at 5:22:16 PM
; Settings Summary
;   processName,Process12
;   applyToModels,pin(2)
;   profileName,Creality CR-10 (modified)
;   profileVersion,2020-02-10 19:41:20
;   baseProfile,
;   printMaterial,PetG
;   printQuality,Medium
;   printExtruders,
;   extruderName,Primary Extruder
;   extruderToolheadNumber,0
;   extruderDiameter,0.8
;   extruderAutoWidth,0
;   extruderWidth,0.78
;   extrusionMultiplier,1
;   extruderUseRetract,1
;   extruderRetractionDistance,3
;   extruderExtraRestartDistance,0
;   extruderRetractionZLift,0
;   extruderRetractionSpeed,1800
;   extruderUseCoasting,1
;   extruderCoastingDistance,0.05
;   extruderUseWipe,0
;   extruderWipeDistance,5
;   primaryExtruder,0
;   layerHeight,0.1
;   topSolidLayers,3
;   bottomSolidLayers,3
;   perimeterOutlines,6
;   printPerimetersInsideOut,1
;   startPointOption,2
;   startPointOriginX,0
;   startPointOriginY,0
;   sequentialIslands,0
;   spiralVaseMode,0
;   firstLayerHeightPercentage,200
;   firstLayerWidthPercentage,100
;   firstLayerUnderspeed,0.3
;   useRaft,0
;   raftExtruder,0
;   raftTopLayers,3
;   raftBaseLayers,2
;   raftOffset,3
;   raftSeparationDistance,0.14
;   raftTopInfill,100
;   aboveRaftSpeedMultiplier,0.3
;   useSkirt,1
;   skirtExtruder,0
;   skirtLayers,1
;   skirtOutlines,4
;   skirtOffset,2.6
;   usePrimePillar,0
;   primePillarExtruder,999
;   primePillarWidth,12
;   primePillarLocation,7
;   primePillarSpeedMultiplier,1
;   useOozeShield,0
;   oozeShieldExtruder,999
;   oozeShieldOffset,2
;   oozeShieldOutlines,1
;   oozeShieldSidewallShape,1
;   oozeShieldSidewallAngle,30
;   oozeShieldSpeedMultiplier,1
;   infillExtruder,0
;   internalInfillPattern,Rectilinear
;   externalInfillPattern,Rectilinear
;   infillPercentage,40
;   outlineOverlapPercentage,42
;   infillExtrusionWidthPercentage,100
;   minInfillLength,5
;   infillLayerInterval,1
;   internalInfillAngles,45,-45
;   overlapInternalInfillAngles,1
;   externalInfillAngles,45,-45
;   generateSupport,0
;   supportExtruder,0
;   supportInfillPercentage,30
;   supportExtraInflation,0
;   supportBaseLayers,0
;   denseSupportExtruder,0
;   denseSupportLayers,0
;   denseSupportInfillPercentage,70
;   supportLayerInterval,1
;   supportHorizontalPartOffset,0.3
;   supportUpperSeparationLayers,1
;   supportLowerSeparationLayers,1
;   supportType,0
;   supportGridSpacing,4
;   maxOverhangAngle,45
;   supportAngles,0
;   temperatureName,Primary Extruder,Heated Bed
;   temperatureNumber,0,0
;   temperatureSetpointCount,3,1
;   temperatureSetpointLayers,1,2,3,1
;   temperatureSetpointTemperatures,240,235,225,85
;   temperatureStabilizeAtStartup,1,1
;   temperatureHeatedBed,0,1
;   fanLayers,1,1
;   fanSpeeds,0,60
;   blipFanToFullPower,0
;   adjustSpeedForCooling,1
;   minSpeedLayerTime,15
;   minCoolingSpeedSlowdown,46
;   increaseFanForCooling,0
;   minFanLayerTime,45
;   maxCoolingFanSpeed,100
;   increaseFanForBridging,0
;   bridgingFanSpeed,100
;   use5D,1
;   relativeEdistances,0
;   allowEaxisZeroing,1
;   independentExtruderAxes,0
;   includeM10123,0
;   stickySupport,1
;   applyToolheadOffsets,0
;   gcodeXoffset,0
;   gcodeYoffset,0
;   gcodeZoffset,0
;   overrideMachineDefinition,1
;   machineTypeOverride,0
;   strokeXoverride,300
;   strokeYoverride,300
;   strokeZoverride,400
;   originOffsetXoverride,0
;   originOffsetYoverride,0
;   originOffsetZoverride,0
;   homeXdirOverride,-1
;   homeYdirOverride,-1
;   homeZdirOverride,-1
;   flipXoverride,1
;   flipYoverride,-1
;   flipZoverride,1
;   toolheadOffsets,0,0|0,0|0,0|0,0|0,0|0,0
;   overrideFirmwareConfiguration,1
;   firmwareTypeOverride,RepRap (Marlin/Repetier/Sprinter)
;   GPXconfigOverride,r2
;   baudRateOverride,115200
;   overridePrinterModels,1
;   printerModelsOverride
;   startingGcode,G28 ; home all axes,G1 Z5 F3000 ; lift,G1 X5 Y10 F1500 ; move to prime,G1 Z0.2 F3000 ; get ready to prime,G92 E0 ; reset extrusion distance,G1 Y80 E10 F600 ; prime nozzle,G1 Y100 F5000 ; quick wipe
;   layerChangeGcode,
;   retractionGcode,
;   toolChangeGcode,
;   endingGcode,G28 X0 ; home x axis,M106 S0 ; turn off cooling fan,M104 S0 ; turn off extruder,M140 S0 ; turn off bed,M84 ; disable motors
;   exportFileFormat,gcode
;   celebration,0
;   celebrationSong,Random Song
;   postProcessing,
;   defaultSpeed,3600
;   outlineUnderspeed,0.4
;   solidInfillUnderspeed,0.8
;   supportUnderspeed,0.8
;   rapidXYspeed,4800
;   rapidZspeed,1002
;   minBridgingArea,50
;   bridgingExtraInflation,0
;   bridgingExtrusionMultiplier,1
;   bridgingSpeedMultiplier,1
;   useFixedBridgingAngle,0
;   fixedBridgingAngle,0
;   applyBridgingToPerimeters,0
;   filamentDiameters,1.75|1.75|1.75|1.75|1.75|1.75
;   filamentPricesPerKg,46|46|46|46|46|46
;   filamentDensities,1.25|1.25|1.25|1.25|1.25|1.25
;   useMinPrintHeight,0
;   minPrintHeight,0
;   useMaxPrintHeight,0
;   maxPrintHeight,0
;   useDiaphragm,0
;   diaphragmLayerInterval,20
;   robustSlicing,1
;   mergeAllIntoSolid,0
;   onlyRetractWhenCrossingOutline,1
;   retractBetweenLayers,0
;   useRetractionMinTravel,0
;   retractionMinTravel,3
;   retractWhileWiping,0
;   onlyWipeOutlines,1
;   avoidCrossingOutline,1
;   maxMovementDetourFactor,21
;   toolChangeRetractionDistance,12
;   toolChangeExtraRestartDistance,-0.5
;   toolChangeRetractionSpeed,600
;   externalThinWallType,1
;   internalThinWallType,1
;   thinWallAllowedOverlapPercentage,97
;   singleExtrusionMinLength,0
;   singleExtrusionMinPrintingWidthPercentage,50
;   singleExtrusionMaxPrintingWidthPercentage,200
;   singleExtrusionEndpointExtension,0.2
;   horizontalSizeCompensation,0
G90
M82
M106 S153
M140 S85
M190 S85
M104 S240 T0
M109 S240 T0
G28 ; home all axes
G1 Z5 F3000 ; lift
G1 X5 Y10 F1500 ; move to prime
G1 Z0.2 F3000 ; get ready to prime
G92 E0 ; reset extrusion distance
G1 Y80 E10 F600 ; prime nozzle
G1 Y100 F5000 ; quick wipe
; process Process12
; layer 1, Z = 0.200
T0
G92 E0.0000
G1 E-3.0000 F1800
; feature skirt
; tool H0.200 W0.780
G1 Z0.200 F1002
G1 X57.212 Y50.068 F4800
G1 E0.0000 F1800
G92 E0.0000
G1 X57.459 Y49.821 E0.0226 F497
G1 X58.115 Y49.246 E0.0793
G1 X58.392 Y49.034 E0.1019
G1 X59.120 Y48.549 E0.1586
G1 X59.425 Y48.373 E0.1814
G1 X60.214 Y47.985 E0.2384
G1 X60.536 Y47.852 E0.2611
G1 X61.361 Y47.574 E0.3176
G1 X61.695 Y47.485 E0.3400
G1 X62.545 Y47.316 E0.3961
G1 X62.890 Y47.270 E0.4188
G1 X63.761 Y47.213 E0.4754
G1 X64.110 Y47.213 E0.4980
G1 X64.981 Y47.270 E0.5546
G1 X65.326 Y47.316 E0.5772
G1 X66.182 Y47.486 E0.6338
G1 X66.519 Y47.576 E0.6564
G1 X67.346 Y47.856 E0.7130
G1 X67.668 Y47.990 E0.7356
G1 X68.451 Y48.375 E0.7922
G1 X68.753 Y48.550 E0.8148
G1 X69.479 Y49.034 E0.8715
G1 X69.756 Y49.246 E0.8941
G1 X70.412 Y49.821 E0.9507
G1 X70.659 Y50.068 E0.9733
G1 X71.235 Y50.724 E1.0299
G1 X71.448 Y51.001 E1.0526
G1 X71.933 Y51.727 E1.1092
G1 X72.108 Y52.029 E1.1318
G1 X72.494 Y52.812 E1.1885
G1 X72.628 Y53.135 E1.2111
G1 X72.909 Y53.961 E1.2678
G1 X73.000 Y54.299 E1.2904
G1 X73.173 Y55.168 E1.3479
G1 X73.220 Y55.535 E1.3719
G1 X73.269 Y56.393 E1.4276
G1 X73.269 Y56.701 E1.4476
G1 X73.220 Y57.560 E1.5034
G1 X73.173 Y57.927 E1.5274
G1 X73.000 Y58.796 E1.5849
G1 X72.909 Y59.133 E1.6075
G1 X72.628 Y59.960 E1.6642
G1 X72.494 Y60.283 E1.6868
G1 X72.108 Y61.065 E1.7434
G1 X71.933 Y61.368 E1.7661
G1 X71.448 Y62.093 E1.8227
G1 X71.235 Y62.370 E1.8454
G1 X70.659 Y63.026 E1.9020
G1 X70.412 Y63.273 E1.9246
G1 X69.756 Y63.848 E1.9812
G1 X69.479 Y64.060 E2.0038
G1 X68.753 Y64.545 E2.0605
G1 X68.451 Y64.719 E2.0831
G1 X67.668 Y65.105 E2.1397
G1 X67.346 Y65.238 E2.1623
G1 X66.519 Y65.519 E2.2189
G1 X66.182 Y65.609 E2.2415
G1 X65.326 Y65.779 E2.2981
G1 X64.981 Y65.824 E2.3207
G1 X64.110 Y65.881 E2.3773
G1 X63.761 Y65.881 E2.3999
G1 X62.891 Y65.824 E2.4565
G1 X62.545 Y65.779 E2.4791
G1 X61.689 Y65.609 E2.5357
G1 X61.352 Y65.519 E2.5584
G1 X60.526 Y65.238 E2.6150
G1 X60.203 Y65.105 E2.6376
G1 X59.420 Y64.719 E2.6942
G1 X59.118 Y64.545 E2.7168
G1 X58.392 Y64.060 E2.7734
G1 X58.115 Y63.848 E2.7960
G1 X57.459 Y63.273 E2.8527
G1 X57.212 Y63.026 E2.8753
G1 X56.636 Y62.370 E2.9319
G1 X56.423 Y62.093 E2.9546
G1 X55.938 Y61.368 E3.0112
G1 X55.763 Y61.065 E3.0338
G1 X55.377 Y60.283 E3.0904
G1 X55.243 Y59.960 E3.1131
G1 X54.962 Y59.133 E3.1697
G1 X54.872 Y58.796 E3.1924
G1 X54.698 Y57.927 E3.2499
G1 X54.652 Y57.560 E3.2739
G1 X54.602 Y56.701 E3.3296
G1 X54.602 Y56.393 E3.3496
G1 X54.652 Y55.535 E3.4054
G1 X54.698 Y55.168 E3.4294
G1 X54.872 Y54.299 E3.4868
G1 X54.962 Y53.961 E3.5095
G1 X55.243 Y53.134 E3.5661
G1 X55.377 Y52.812 E3.5888
G1 X55.763 Y52.029 E3.6454
G1 X55.938 Y51.727 E3.6681
G1 X56.423 Y51.001 E3.7247
G1 X56.636 Y50.724 E3.7473
G1 X57.212 Y50.068 E3.8039
G92 E0.0000
G1 E-3.0000 F1800
G1 X57.781 Y50.602 F4800
G1 E0.0000 F1800
G92 E0.0000
G1 X57.992 Y50.391 E0.0193 F497
G1 X58.610 Y49.850 E0.0726
G1 X58.847 Y49.669 E0.0919
G1 X59.531 Y49.212 E0.1453
G1 X59.792 Y49.062 E0.1648
G1 X60.535 Y48.697 E0.2185
G1 X60.810 Y48.583 E0.2378
G1 X61.587 Y48.321 E0.2910
G1 X61.872 Y48.245 E0.3102
G1 X62.672 Y48.086 E0.3630
G1 X62.967 Y48.047 E0.3823
G1 X63.787 Y47.993 E0.4356
G1 X64.084 Y47.993 E0.4549
G1 X64.904 Y48.047 E0.5082
G1 X65.199 Y48.086 E0.5275
G1 X66.005 Y48.246 E0.5808
G1 X66.293 Y48.323 E0.6001
G1 X67.071 Y48.587 E0.6534
G1 X67.346 Y48.701 E0.6727
G1 X68.083 Y49.064 E0.7260
G1 X68.341 Y49.212 E0.7453
G1 X69.025 Y49.669 E0.7986
G1 X69.261 Y49.850 E0.8179
G1 X69.879 Y50.391 E0.8712
G1 X70.090 Y50.602 E0.8906
G1 X70.632 Y51.220 E0.9439
G1 X70.814 Y51.456 E0.9632
G1 X71.271 Y52.139 E1.0165
G1 X71.420 Y52.397 E1.0358
G1 X71.784 Y53.134 E1.0892
G1 X71.898 Y53.410 E1.1085
G1 X72.162 Y54.188 E1.1618
G1 X72.240 Y54.476 E1.1811
G1 X72.402 Y55.294 E1.2352
G1 X72.443 Y55.607 E1.2557
G1 X72.489 Y56.416 E1.3082
G1 X72.489 Y56.679 E1.3253
G1 X72.443 Y57.488 E1.3779
G1 X72.402 Y57.801 E1.3983
G1 X72.240 Y58.618 E1.4524
G1 X72.162 Y58.906 E1.4717
G1 X71.898 Y59.685 E1.5251
G1 X71.784 Y59.960 E1.5444
G1 X71.420 Y60.697 E1.5977
G1 X71.271 Y60.955 E1.6170
G1 X70.814 Y61.639 E1.6703
G1 X70.632 Y61.875 E1.6897
G1 X70.090 Y62.493 E1.7430
G1 X69.879 Y62.703 E1.7623
G1 X69.261 Y63.245 E1.8156
G1 X69.025 Y63.426 E1.8349
G1 X68.341 Y63.882 E1.8882
G1 X68.083 Y64.031 E1.9075
G1 X67.346 Y64.394 E1.9608
G1 X67.071 Y64.508 E1.9801
G1 X66.293 Y64.772 E2.0334
G1 X66.005 Y64.849 E2.0527
G1 X65.199 Y65.009 E2.1060
G1 X64.904 Y65.048 E2.1253
G1 X64.084 Y65.101 E2.1786
G1 X63.787 Y65.101 E2.1979
G1 X62.967 Y65.048 E2.2512
G1 X62.672 Y65.009 E2.2705
G1 X61.866 Y64.849 E2.3238
G1 X61.578 Y64.772 E2.3431
G1 X60.800 Y64.508 E2.3964
G1 X60.525 Y64.394 E2.4157
G1 X59.788 Y64.031 E2.4690
G1 X59.530 Y63.882 E2.4883
G1 X58.847 Y63.426 E2.5416
G1 X58.610 Y63.245 E2.5609
G1 X57.992 Y62.703 E2.6142
G1 X57.781 Y62.493 E2.6336
G1 X57.239 Y61.875 E2.6869
G1 X57.057 Y61.639 E2.7062
G1 X56.600 Y60.955 E2.7595
G1 X56.451 Y60.697 E2.7788
G1 X56.087 Y59.960 E2.8321
G1 X55.973 Y59.685 E2.8515
G1 X55.709 Y58.907 E2.9048
G1 X55.632 Y58.618 E2.9241
G1 X55.469 Y57.801 E2.9782
G1 X55.429 Y57.488 E2.9987
G1 X55.382 Y56.679 E3.0512
G1 X55.382 Y56.416 E3.0683
G1 X55.429 Y55.607 E3.1209
G1 X55.469 Y55.294 E3.1413
G1 X55.632 Y54.476 E3.1954
G1 X55.709 Y54.188 E3.2147
G1 X55.973 Y53.410 E3.2681
G1 X56.087 Y53.134 E3.2874
G1 X56.451 Y52.397 E3.3407
G1 X56.600 Y52.139 E3.3600
G1 X57.057 Y51.456 E3.4133
G1 X57.239 Y51.220 E3.4327
G1 X57.781 Y50.602 E3.4860
G92 E0.0000
G1 E-3.0000 F1800
G1 X58.351 Y51.136 F4800
G1 E0.0000 F1800
G92 E0.0000
G1 X58.525 Y50.961 E0.0160 F497
G1 X59.105 Y50.453 E0.0660
G1 X59.301 Y50.303 E0.0820
G1 X59.943 Y49.875 E0.1321
G1 X60.159 Y49.750 E0.1482
G1 X60.856 Y49.408 E0.1986
G1 X61.084 Y49.314 E0.2146
G1 X61.813 Y49.068 E0.2645
G1 X62.049 Y49.005 E0.2803
G1 X62.799 Y48.856 E0.3299
G1 X63.043 Y48.824 E0.3459
G1 X63.812 Y48.773 E0.3959
G1 X64.059 Y48.773 E0.4119
G1 X64.828 Y48.824 E0.4619
G1 X65.072 Y48.856 E0.4779
G1 X65.828 Y49.006 E0.5279
G1 X66.067 Y49.070 E0.5439
G1 X66.796 Y49.317 E0.5938
G1 X67.024 Y49.412 E0.6098
G1 X67.716 Y49.752 E0.6598
G1 X67.929 Y49.875 E0.6758
G1 X68.570 Y50.303 E0.7258
G1 X68.766 Y50.453 E0.7418
G1 X69.346 Y50.961 E0.7918
G1 X69.521 Y51.136 E0.8078
G1 X70.029 Y51.715 E0.8578
G1 X70.180 Y51.911 E0.8738
G1 X70.608 Y52.552 E0.9238
G1 X70.732 Y52.765 E0.9398
G1 X71.073 Y53.457 E0.9898
G1 X71.168 Y53.685 E1.0059
G1 X71.416 Y54.415 E1.0559
G1 X71.480 Y54.653 E1.0719
G1 X71.632 Y55.419 E1.1225
G1 X71.665 Y55.679 E1.1395
G1 X71.709 Y56.438 E1.1888
G1 X71.709 Y56.656 E1.2030
G1 X71.665 Y57.416 E1.2523
G1 X71.632 Y57.675 E1.2693
G1 X71.480 Y58.441 E1.3199
G1 X71.416 Y58.680 E1.3360
G1 X71.168 Y59.410 E1.3860
G1 X71.073 Y59.638 E1.4020
G1 X70.732 Y60.329 E1.4520
G1 X70.608 Y60.543 E1.4680
G1 X70.180 Y61.184 E1.5180
G1 X70.029 Y61.380 E1.5340
G1 X69.521 Y61.959 E1.5840
G1 X69.346 Y62.133 E1.6000
G1 X68.766 Y62.641 E1.6500
G1 X68.570 Y62.791 E1.6660
G1 X67.929 Y63.219 E1.7160
G1 X67.716 Y63.342 E1.7320
G1 X67.024 Y63.683 E1.7820
G1 X66.796 Y63.777 E1.7980
G1 X66.066 Y64.025 E1.8480
G1 X65.828 Y64.089 E1.8640
G1 X65.072 Y64.239 E1.9139
G1 X64.828 Y64.271 E1.9299
G1 X64.059 Y64.321 E1.9799
G1 X63.812 Y64.321 E1.9959
G1 X63.043 Y64.271 E2.0459
G1 X62.799 Y64.239 E2.0619
G1 X62.043 Y64.089 E2.1119
G1 X61.805 Y64.025 E2.1279
G1 X61.075 Y63.777 E2.1778
G1 X60.847 Y63.683 E2.1938
G1 X60.156 Y63.342 E2.2438
G1 X59.942 Y63.219 E2.2598
G1 X59.301 Y62.791 E2.3098
G1 X59.105 Y62.641 E2.3258
G1 X58.525 Y62.133 E2.3758
G1 X58.351 Y61.959 E2.3918
G1 X57.842 Y61.380 E2.4418
G1 X57.692 Y61.184 E2.4578
G1 X57.263 Y60.543 E2.5078
G1 X57.139 Y60.329 E2.5238
G1 X56.798 Y59.638 E2.5738
G1 X56.704 Y59.410 E2.5899
G1 X56.456 Y58.680 E2.6399
G1 X56.392 Y58.441 E2.6559
G1 X56.239 Y57.675 E2.7065
G1 X56.206 Y57.416 E2.7235
G1 X56.162 Y56.656 E2.7728
G1 X56.162 Y56.438 E2.7870
G1 X56.206 Y55.679 E2.8363
G1 X56.239 Y55.419 E2.8533
G1 X56.392 Y54.653 E2.9039
G1 X56.456 Y54.415 E2.9200
G1 X56.704 Y53.685 E2.9700
G1 X56.798 Y53.457 E2.9860
G1 X57.139 Y52.765 E3.0360
G1 X57.263 Y52.552 E3.0520
G1 X57.692 Y51.911 E3.1020
G1 X57.842 Y51.715 E3.1180
G1 X58.351 Y51.136 E3.1680
G92 E0.0000
G1 E-3.0000 F1800
G1 X58.920 Y51.670 F4800
G1 E0.0000 F1800
G92 E0.0000
G1 X59.058 Y51.531 E0.0127 F497
G1 X59.600 Y51.057 E0.0594
G1 X59.755 Y50.938 E0.0721
G1 X60.354 Y50.538 E0.1188
G1 X60.525 Y50.439 E0.1316
G1 X61.177 Y50.119 E0.1787
G1 X61.357 Y50.045 E0.1913
G1 X62.038 Y49.815 E0.2380
G1 X62.226 Y49.765 E0.2505
G1 X62.926 Y49.626 E0.2968
G1 X63.120 Y49.600 E0.3095
G1 X63.838 Y49.553 E0.3562
G1 X64.033 Y49.553 E0.3689
G1 X64.752 Y49.600 E0.4155
G1 X64.945 Y49.626 E0.4282
G1 X65.651 Y49.766 E0.4749
G1 X65.840 Y49.817 E0.4876
G1 X66.522 Y50.048 E0.5343
G1 X66.703 Y50.123 E0.5470
G1 X67.348 Y50.441 E0.5936
G1 X67.518 Y50.538 E0.6063
G1 X68.116 Y50.938 E0.6530
G1 X68.271 Y51.057 E0.6657
G1 X68.813 Y51.531 E0.7124
G1 X68.951 Y51.670 E0.7251
G1 X69.426 Y52.210 E0.7718
G1 X69.546 Y52.366 E0.7845
G1 X69.946 Y52.964 E0.8311
G1 X70.044 Y53.134 E0.8438
G1 X70.362 Y53.779 E0.8905
G1 X70.437 Y53.960 E0.9032
G1 X70.669 Y54.641 E0.9499
G1 X70.720 Y54.831 E0.9626
G1 X70.862 Y55.545 E1.0099
G1 X70.888 Y55.751 E1.0233
G1 X70.929 Y56.461 E1.0694
G1 X70.929 Y56.634 E1.0806
G1 X70.888 Y57.344 E1.1268
G1 X70.862 Y57.549 E1.1402
G1 X70.720 Y58.264 E1.1875
G1 X70.669 Y58.453 E1.2002
G1 X70.437 Y59.135 E1.2469
G1 X70.362 Y59.316 E1.2596
G1 X70.044 Y59.961 E1.3062
G1 X69.946 Y60.130 E1.3189
G1 X69.546 Y60.729 E1.3656
G1 X69.426 Y60.884 E1.3783
G1 X68.951 Y61.425 E1.4250
G1 X68.813 Y61.563 E1.4377
G1 X68.272 Y62.038 E1.4844
G1 X68.116 Y62.157 E1.4971
G1 X67.518 Y62.556 E1.5438
G1 X67.348 Y62.654 E1.5564
G1 X66.703 Y62.972 E1.6031
G1 X66.522 Y63.047 E1.6158
G1 X65.840 Y63.278 E1.6625
G1 X65.651 Y63.328 E1.6752
G1 X64.945 Y63.469 E1.7219
G1 X64.751 Y63.494 E1.7345
G1 X64.033 Y63.541 E1.7812
G1 X63.838 Y63.541 E1.7939
G1 X63.120 Y63.494 E1.8406
G1 X62.926 Y63.469 E1.8532
G1 X62.220 Y63.328 E1.8999
G1 X62.031 Y63.278 E1.9126
G1 X61.349 Y63.047 E1.9593
G1 X61.169 Y62.972 E1.9720
G1 X60.523 Y62.654 E2.0186
G1 X60.354 Y62.556 E2.0313
