; G-Code generated by Simplify3D(R) Version 4.1.2
; Sep 14, 2020 at 9:27:46 PM
; Settings Summary
;   processName,Process1
;   applyToModels,back(2)
;   profileName,Creality CR-10 (modified)
;   profileVersion,2020-02-10 19:41:20
;   baseProfile,
;   printMaterial,PetG
;   printQuality,Medium
;   printExtruders,
;   extruderName,Primary Extruder
;   extruderToolheadNumber,0
;   extruderDiameter,0.4
;   extruderAutoWidth,0
;   extruderWidth,0.38
;   extrusionMultiplier,1
;   extruderUseRetract,1
;   extruderRetractionDistance,3
;   extruderExtraRestartDistance,0
;   extruderRetractionZLift,0
;   extruderRetractionSpeed,1800
;   extruderUseCoasting,1
;   extruderCoastingDistance,0.05
;   extruderUseWipe,0
;   extruderWipeDistance,5
;   primaryExtruder,0
;   layerHeight,0.1
;   topSolidLayers,8
;   bottomSolidLayers,5
;   perimeterOutlines,6
;   printPerimetersInsideOut,1
;   startPointOption,2
;   startPointOriginX,0
;   startPointOriginY,0
;   sequentialIslands,1
;   spiralVaseMode,0
;   firstLayerHeightPercentage,200
;   firstLayerWidthPercentage,100
;   firstLayerUnderspeed,0.4
;   useRaft,0
;   raftExtruder,0
;   raftTopLayers,3
;   raftBaseLayers,2
;   raftOffset,3
;   raftSeparationDistance,0.14
;   raftTopInfill,100
;   aboveRaftSpeedMultiplier,0.3
;   useSkirt,1
;   skirtExtruder,0
;   skirtLayers,1
;   skirtOutlines,4
;   skirtOffset,2.6
;   usePrimePillar,0
;   primePillarExtruder,999
;   primePillarWidth,12
;   primePillarLocation,7
;   primePillarSpeedMultiplier,1
;   useOozeShield,0
;   oozeShieldExtruder,999
;   oozeShieldOffset,2
;   oozeShieldOutlines,1
;   oozeShieldSidewallShape,1
;   oozeShieldSidewallAngle,30
;   oozeShieldSpeedMultiplier,1
;   infillExtruder,0
;   internalInfillPattern,Triangular
;   externalInfillPattern,Rectilinear
;   infillPercentage,40
;   outlineOverlapPercentage,42
;   infillExtrusionWidthPercentage,120
;   minInfillLength,5
;   infillLayerInterval,1
;   internalInfillAngles,0,60,-60
;   overlapInternalInfillAngles,1
;   externalInfillAngles,45,-45
;   generateSupport,0
;   supportExtruder,0
;   supportInfillPercentage,30
;   supportExtraInflation,0
;   supportBaseLayers,0
;   denseSupportExtruder,0
;   denseSupportLayers,0
;   denseSupportInfillPercentage,70
;   supportLayerInterval,1
;   supportHorizontalPartOffset,0.3
;   supportUpperSeparationLayers,1
;   supportLowerSeparationLayers,1
;   supportType,0
;   supportGridSpacing,4
;   maxOverhangAngle,45
;   supportAngles,0
;   temperatureName,Primary Extruder,Heated Bed
;   temperatureNumber,0,0
;   temperatureSetpointCount,3,1
;   temperatureSetpointLayers,1,2,3,1
;   temperatureSetpointTemperatures,230,230,230,85
;   temperatureStabilizeAtStartup,1,1
;   temperatureHeatedBed,0,1
;   fanLayers,1,1
;   fanSpeeds,0,50
;   blipFanToFullPower,0
;   adjustSpeedForCooling,1
;   minSpeedLayerTime,15
;   minCoolingSpeedSlowdown,46
;   increaseFanForCooling,0
;   minFanLayerTime,45
;   maxCoolingFanSpeed,100
;   increaseFanForBridging,0
;   bridgingFanSpeed,100
;   use5D,1
;   relativeEdistances,0
;   allowEaxisZeroing,1
;   independentExtruderAxes,0
;   includeM10123,0
;   stickySupport,1
;   applyToolheadOffsets,0
;   gcodeXoffset,0
;   gcodeYoffset,0
;   gcodeZoffset,0
;   overrideMachineDefinition,1
;   machineTypeOverride,0
;   strokeXoverride,300
;   strokeYoverride,300
;   strokeZoverride,400
;   originOffsetXoverride,0
;   originOffsetYoverride,0
;   originOffsetZoverride,0
;   homeXdirOverride,-1
;   homeYdirOverride,-1
;   homeZdirOverride,-1
;   flipXoverride,1
;   flipYoverride,-1
;   flipZoverride,1
;   toolheadOffsets,0,0|0,0|0,0|0,0|0,0|0,0
;   overrideFirmwareConfiguration,1
;   firmwareTypeOverride,RepRap (Marlin/Repetier/Sprinter)
;   GPXconfigOverride,r2
;   baudRateOverride,115200
;   overridePrinterModels,1
;   printerModelsOverride
;   startingGcode,G28 ; home all axes,G1 Z5 F3000 ; lift,G1 X5 Y10 F1500 ; move to prime,G1 Z0.2 F3000 ; get ready to prime,G92 E0 ; reset extrusion distance,G1 Y80 E10 F600 ; prime nozzle,G1 Y100 F5000 ; quick wipe
;   layerChangeGcode,
;   retractionGcode,
;   toolChangeGcode,
;   endingGcode,G28 X0 ; home x axis,M106 S0 ; turn off cooling fan,M104 S0 ; turn off extruder,M140 S0 ; turn off bed,M84 ; disable motors
;   exportFileFormat,gcode
;   celebration,0
;   celebrationSong,Random Song
;   postProcessing,
;   defaultSpeed,3600
;   outlineUnderspeed,0.6
;   solidInfillUnderspeed,0.8
;   supportUnderspeed,0.8
;   rapidXYspeed,4800
;   rapidZspeed,1002
;   minBridgingArea,50
;   bridgingExtraInflation,0
;   bridgingExtrusionMultiplier,1
;   bridgingSpeedMultiplier,1
;   useFixedBridgingAngle,0
;   fixedBridgingAngle,0
;   applyBridgingToPerimeters,0
;   filamentDiameters,1.75|1.75|1.75|1.75|1.75|1.75
;   filamentPricesPerKg,46|46|46|46|46|46
;   filamentDensities,1.25|1.25|1.25|1.25|1.25|1.25
;   useMinPrintHeight,0
;   minPrintHeight,0
;   useMaxPrintHeight,0
;   maxPrintHeight,1.07
;   useDiaphragm,0
;   diaphragmLayerInterval,20
;   robustSlicing,1
;   mergeAllIntoSolid,0
;   onlyRetractWhenCrossingOutline,1
;   retractBetweenLayers,0
;   useRetractionMinTravel,0
;   retractionMinTravel,3
;   retractWhileWiping,0
;   onlyWipeOutlines,1
;   avoidCrossingOutline,1
;   maxMovementDetourFactor,21
;   toolChangeRetractionDistance,12
;   toolChangeExtraRestartDistance,-0.5
;   toolChangeRetractionSpeed,600
;   externalThinWallType,1
;   internalThinWallType,1
;   thinWallAllowedOverlapPercentage,97
;   singleExtrusionMinLength,0.01
;   singleExtrusionMinPrintingWidthPercentage,28
;   singleExtrusionMaxPrintingWidthPercentage,200
;   singleExtrusionEndpointExtension,0.2
;   horizontalSizeCompensation,0
G90
M82
M106 S128
M140 S85
M190 S85
M104 S230 T0
M109 S230 T0
G28 ; home all axes
G1 Z5 F3000 ; lift
G1 X5 Y10 F1500 ; move to prime
G1 Z0.2 F3000 ; get ready to prime
G92 E0 ; reset extrusion distance
G1 Y80 E10 F600 ; prime nozzle
G1 Y100 F5000 ; quick wipe
; process Process1
; layer 1, Z = 0.200
T0
G92 E0.0000
G1 E-3.0000 F1800
; feature skirt
; tool H0.200 W0.380
G1 Z0.200 F1002
G1 X41.541 Y30.391 F4800
G1 E0.0000 F1800
G92 E0.0000
G1 X42.089 Y29.638 E0.0294 F1440
G1 X42.526 Y29.200 E0.0490
G1 X43.283 Y28.650 E0.0786
G1 X43.843 Y28.366 E0.0984
G1 X44.735 Y28.081 E0.1280
G1 X45.336 Y27.987 E0.1472
G1 X79.670 Y27.975 E1.2320
G1 X79.825 Y27.981 E1.2369
G1 X80.289 Y28.018 E1.2517
G1 X80.744 Y28.108 E1.2663
G1 X81.556 Y28.372 E1.2933
G1 X82.107 Y28.653 E1.3128
G1 X82.861 Y29.200 E1.3423
G1 X83.298 Y29.638 E1.3618
G1 X83.800 Y30.328 E1.3888
G1 X84.027 Y30.733 E1.4034
G1 X84.264 Y31.306 E1.4230
G1 X84.390 Y31.753 E1.4377
G1 X84.499 Y32.443 E1.4598
G1 X84.523 Y32.751 E1.4695
G1 X84.523 Y64.059 E2.4588
G1 X84.499 Y64.367 E2.4686
G1 X84.390 Y65.058 E2.4906
G1 X84.264 Y65.504 E2.5053
G1 X84.027 Y66.077 E2.5249
G1 X83.800 Y66.482 E2.5395
G1 X83.298 Y67.172 E2.5665
G1 X82.861 Y67.610 E2.5861
G1 X82.107 Y68.157 E2.6155
G1 X81.556 Y68.438 E2.6351
G1 X80.744 Y68.702 E2.6620
G1 X80.289 Y68.792 E2.6767
G1 X79.825 Y68.829 E2.6914
G1 X79.671 Y68.835 E2.6963
G1 X45.731 Y68.835 E3.7687
G1 X45.475 Y68.818 E3.7768
G1 X44.641 Y68.709 E3.8033
G1 X44.000 Y68.510 E3.8246
G1 X43.215 Y68.111 E3.8524
G1 X42.830 Y67.853 E3.8670
G1 X42.358 Y67.450 E3.8866
G1 X42.043 Y67.110 E3.9013
G1 X41.541 Y66.419 E3.9283
G1 X41.260 Y65.868 E3.9478
G1 X40.996 Y65.055 E3.9748
G1 X40.906 Y64.600 E3.9895
G1 X40.869 Y64.136 E4.0042
G1 X40.863 Y63.981 E4.0091
G1 X40.876 Y32.438 E5.0057
G1 X40.973 Y31.828 E5.0253
G1 X41.260 Y30.942 E5.0547
G1 X41.541 Y30.391 E5.0742
G92 E0.0000
G1 E-3.0000 F1800
G1 X41.866 Y30.590 F4800
G1 E0.0000 F1800
G92 E0.0000
G1 X42.379 Y29.885 E0.0275 F1440
G1 X42.774 Y29.490 E0.0452
G1 X43.482 Y28.975 E0.0729
G1 X43.988 Y28.719 E0.0908
G1 X44.822 Y28.452 E0.1185
G1 X45.366 Y28.367 E0.1358
G1 X79.662 Y28.355 E1.2195
G1 X79.802 Y28.360 E1.2239
G1 X80.237 Y28.395 E1.2377
G1 X80.648 Y28.476 E1.2510
G1 X81.410 Y28.724 E1.2763
G1 X81.908 Y28.978 E1.2939
G1 X82.613 Y29.490 E1.3215
G1 X83.008 Y29.885 E1.3391
G1 X83.479 Y30.534 E1.3645
G1 X83.684 Y30.899 E1.3777
G1 X83.904 Y31.431 E1.3959
G1 X84.018 Y31.834 E1.4091
G1 X84.122 Y32.488 E1.4300
G1 X84.143 Y32.766 E1.4388
G1 X84.143 Y64.044 E2.4272
G1 X84.122 Y64.322 E2.4360
G1 X84.018 Y64.976 E2.4569
G1 X83.904 Y65.379 E2.4701
G1 X83.684 Y65.911 E2.4883
G1 X83.479 Y66.276 E2.5015
G1 X83.008 Y66.925 E2.5269
G1 X82.613 Y67.320 E2.5445
G1 X81.908 Y67.832 E2.5721
G1 X81.410 Y68.086 E2.5897
G1 X80.648 Y68.334 E2.6150
G1 X80.237 Y68.415 E2.6283
G1 X79.802 Y68.450 E2.6420
G1 X79.663 Y68.455 E2.6465
G1 X45.743 Y68.455 E3.7182
G1 X45.512 Y68.440 E3.7255
G1 X44.723 Y68.337 E3.7507
G1 X44.143 Y68.157 E3.7699
G1 X43.408 Y67.782 E3.7960
G1 X43.059 Y67.549 E3.8092
G1 X42.622 Y67.176 E3.8274
G1 X42.337 Y66.868 E3.8406
G1 X41.866 Y66.220 E3.8659
G1 X41.612 Y65.722 E3.8836
G1 X41.365 Y64.959 E3.9089
G1 X41.283 Y64.548 E3.9222
G1 X41.249 Y64.113 E3.9360
G1 X41.243 Y63.974 E3.9404
G1 X41.256 Y32.468 E4.9359
G1 X41.343 Y31.917 E4.9535
G1 X41.612 Y31.088 E4.9810
G1 X41.866 Y30.590 E4.9987
G92 E0.0000
G1 E-3.0000 F1800
G1 X42.191 Y30.790 F4800
G1 E0.0000 F1800
G92 E0.0000
G1 X42.668 Y30.133 E0.0257 F1440
G1 X43.021 Y29.780 E0.0414
G1 X43.681 Y29.301 E0.0672
G1 X44.133 Y29.072 E0.0832
G1 X44.910 Y28.823 E0.1090
G1 X45.395 Y28.747 E0.1245
G1 X79.655 Y28.735 E1.2070
G1 X79.780 Y28.740 E1.2109
G1 X80.185 Y28.772 E1.2238
G1 X80.552 Y28.845 E1.2356
G1 X81.264 Y29.076 E1.2593
G1 X81.709 Y29.303 E1.2750
G1 X82.366 Y29.780 E1.3007
G1 X82.718 Y30.133 E1.3165
G1 X83.159 Y30.739 E1.3401
G1 X83.342 Y31.065 E1.3519
G1 X83.545 Y31.556 E1.3687
G1 X83.646 Y31.916 E1.3805
G1 X83.744 Y32.532 E1.4003
G1 X83.763 Y32.781 E1.4081
G1 X83.763 Y64.030 E2.3955
G1 X83.744 Y64.278 E2.4034
G1 X83.646 Y64.894 E2.4231
G1 X83.545 Y65.254 E2.4349
G1 X83.342 Y65.745 E2.4517
G1 X83.159 Y66.071 E2.4635
G1 X82.718 Y66.677 E2.4872
G1 X82.366 Y67.030 E2.5030
G1 X81.709 Y67.507 E2.5286
G1 X81.264 Y67.734 E2.5444
G1 X80.552 Y67.965 E2.5681
G1 X80.185 Y68.038 E2.5799
G1 X79.780 Y68.070 E2.5927
G1 X79.656 Y68.075 E2.5966
G1 X45.755 Y68.075 E3.6678
G1 X45.549 Y68.062 E3.6743
G1 X44.804 Y67.964 E3.6980
G1 X44.287 Y67.804 E3.7152
G1 X43.600 Y67.454 E3.7395
G1 X43.289 Y67.246 E3.7513
G1 X42.885 Y66.901 E3.7681
G1 X42.632 Y66.627 E3.7799
G1 X42.191 Y66.021 E3.8036
G1 X41.965 Y65.576 E3.8194
G1 X41.733 Y64.863 E3.8430
G1 X41.660 Y64.496 E3.8549
G1 X41.628 Y64.091 E3.8677
G1 X41.623 Y63.966 E3.8717
G1 X41.636 Y32.498 E4.8660
G1 X41.714 Y32.006 E4.8817
G1 X41.965 Y31.234 E4.9073
G1 X42.191 Y30.790 E4.9231
G92 E0.0000
G1 E-3.0000 F1800
G1 X42.516 Y30.989 F4800
G1 E0.0000 F1800
G92 E0.0000
G1 X42.958 Y30.380 E0.0238 F1440
G1 X43.269 Y30.070 E0.0376
G1 X43.880 Y29.626 E0.0615
G1 X44.277 Y29.425 E0.0756
G1 X44.998 Y29.194 E0.0995
G1 X45.425 Y29.127 E0.1131
G1 X79.647 Y29.115 E1.1945
G1 X79.758 Y29.119 E1.1980
G1 X80.133 Y29.149 E1.2099
G1 X80.455 Y29.213 E1.2202
G1 X81.118 Y29.428 E1.2423
G1 X81.510 Y29.628 E1.2561
G1 X82.118 Y30.070 E1.2799
G1 X82.429 Y30.380 E1.2938
G1 X82.838 Y30.944 E1.3158
G1 X82.999 Y31.231 E1.3262
G1 X83.185 Y31.680 E1.3416
G1 X83.274 Y31.997 E1.3520
G1 X83.366 Y32.577 E1.3705
G1 X83.383 Y32.795 E1.3774
G1 X83.383 Y64.015 E2.3639
G1 X83.366 Y64.233 E2.3708
G1 X83.274 Y64.813 E2.3893
G1 X83.185 Y65.130 E2.3997
G1 X82.999 Y65.579 E2.4151
G1 X82.838 Y65.866 E2.4255
G1 X82.429 Y66.430 E2.4475
G1 X82.118 Y66.740 E2.4614
G1 X81.510 Y67.182 E2.4852
G1 X81.118 Y67.382 E2.4990
G1 X80.455 Y67.597 E2.5211
G1 X80.133 Y67.661 E2.5315
G1 X79.758 Y67.691 E2.5433
G1 X79.648 Y67.695 E2.5468
G1 X45.768 Y67.695 E3.6173
G1 X45.586 Y67.683 E3.6231
G1 X44.886 Y67.592 E3.6454
G1 X44.430 Y67.450 E3.6605
G1 X43.792 Y67.125 E3.6831
G1 X43.519 Y66.942 E3.6935
G1 X43.149 Y66.627 E3.7088
G1 X42.926 Y66.385 E3.7192
G1 X42.516 Y65.821 E3.7413
G1 X42.317 Y65.430 E3.7551
G1 X42.101 Y64.767 E3.7772
G1 X42.037 Y64.444 E3.7876
G1 X42.008 Y64.069 E3.7995
G1 X42.003 Y63.959 E3.8029
G1 X42.016 Y32.528 E4.7961
G1 X42.084 Y32.095 E4.8099
G1 X42.317 Y31.380 E4.8337
G1 X42.516 Y30.989 E4.8476
G92 E0.0000
G1 E-3.0000 F1800
; feature inner perimeter
G1 X45.072 Y32.538 F4800
G1 X45.024 Y32.655
G1 X45.011 Y32.706
G1 X46.883 Y33.995
G1 E0.0000 F1800
G92 E0.0000
G1 X78.503 Y33.995 E0.9991 F1152
G1 X78.503 Y62.815 E1.9097
G1 X46.883 Y62.815 E2.9088
G1 X46.883 Y34.045 E3.8179
G1 X46.883 Y33.995 F1152
G1 X46.503 Y33.615 F4800
G92 E0.0000
G1 X78.883 Y33.615 E1.0231 F1152
G1 X78.883 Y63.195 E1.9578
G1 X46.503 Y63.195 E2.9809
G1 X46.503 Y33.665 E3.9139
G1 X46.503 Y33.615 F1152
G1 X46.454 Y33.235 F4800
G92 E0.0000
G1 X79.263 Y33.235 E1.0367 F1152
G1 X79.263 Y63.575 E1.9953
G1 X46.123 Y63.575 E3.0425
G1 X46.123 Y33.240 E4.0009
G1 X46.404 Y33.236 E4.0098
G1 X46.454 Y33.235 F1152
G1 X46.451 Y32.855 F4800
G92 E0.0000
G1 X79.556 Y32.855 E1.0460 F1152
G1 X79.601 Y32.859 E1.0474
G1 X79.608 Y32.860 E1.0477
G1 X79.615 Y32.863 E1.0479
G1 X79.621 Y32.867 E1.0481
G1 X79.627 Y32.872 E1.0484
G1 X79.631 Y32.877 E1.0486
G1 X79.635 Y32.884 E1.0488
G1 X79.638 Y32.891 E1.0491
G1 X79.640 Y32.898 E1.0493
G1 X79.643 Y32.942 E1.0507
G1 X79.643 Y63.868 E2.0279
G1 X79.640 Y63.912 E2.0293
G1 X79.638 Y63.920 E2.0295
G1 X79.635 Y63.926 E2.0297
G1 X79.632 Y63.933 E2.0300
G1 X79.627 Y63.938 E2.0302
G1 X79.621 Y63.943 E2.0304
G1 X79.615 Y63.947 E2.0307
G1 X79.608 Y63.950 E2.0309
G1 X79.601 Y63.952 E2.0311
G1 X79.556 Y63.955 E2.0326
G1 X45.885 Y63.955 E3.0965
G1 X45.777 Y63.949 E3.0999
G1 X45.772 Y63.947 E3.1001
G1 X45.766 Y63.943 E3.1003
G1 X45.760 Y63.938 E3.1005
G1 X45.755 Y63.933 E3.1008
G1 X45.751 Y63.926 E3.1010
G1 X45.749 Y63.920 E3.1012
G1 X45.747 Y63.912 E3.1015
G1 X45.743 Y63.868 E3.1029
G1 X45.743 Y32.942 E4.0800
G1 X45.747 Y32.898 E4.0814
G1 X45.749 Y32.890 E4.0817
G1 X45.751 Y32.884 E4.0819
G1 X45.755 Y32.877 E4.0822
G1 X45.760 Y32.872 E4.0824
G1 X45.768 Y32.865 E4.0827
G1 X46.401 Y32.856 E4.1027
G1 X46.451 Y32.855 F1152
G1 X46.448 Y32.475 F4800
G92 E0.0000
G1 X79.571 Y32.475 E1.0466 F1152
G1 X79.660 Y32.482 E1.0494
G1 X79.726 Y32.498 E1.0515
G1 X79.788 Y32.523 E1.0537
G1 X79.845 Y32.559 E1.0558
G1 X79.896 Y32.602 E1.0579
G1 X79.940 Y32.653 E1.0600
G1 X79.975 Y32.711 E1.0622
G1 X80.001 Y32.773 E1.0643
G1 X80.016 Y32.838 E1.0664
G1 X80.023 Y32.927 E1.0692
G1 X80.023 Y63.883 E2.0473
G1 X80.016 Y63.972 E2.0502
G1 X80.001 Y64.037 E2.0523
G1 X79.975 Y64.099 E2.0544
G1 X79.940 Y64.157 E2.0565
G1 X79.896 Y64.208 E2.0587
G1 X79.845 Y64.251 E2.0608
G1 X79.788 Y64.287 E2.0629
G1 X79.726 Y64.312 E2.0650
G1 X79.660 Y64.328 E2.0672
G1 X79.571 Y64.335 E2.0700
G1 X45.874 Y64.335 E3.1347
G1 X45.720 Y64.326 E3.1396
G1 X45.661 Y64.312 E3.1415
G1 X45.599 Y64.287 E3.1436
G1 X45.542 Y64.251 E3.1458
G1 X45.491 Y64.208 E3.1479
G1 X45.447 Y64.157 E3.1500
G1 X45.412 Y64.099 E3.1521
G1 X45.386 Y64.037 E3.1542
G1 X45.370 Y63.972 E3.1564
G1 X45.363 Y63.883 E3.1592
G1 X45.363 Y32.927 E4.1373
G1 X45.370 Y32.838 E4.1401
G1 X45.386 Y32.773 E4.1423
G1 X45.412 Y32.711 E4.1444
G1 X45.447 Y32.653 E4.1465
G1 X45.491 Y32.602 E4.1486
G1 X45.542 Y32.559 E4.1507
G1 X45.598 Y32.524 E4.1528
G1 X45.661 Y32.498 E4.1550
G1 X45.712 Y32.486 E4.1566
G1 X46.398 Y32.476 E4.1783
G1 X46.448 Y32.475 F1152
; feature outer perimeter
G1 X46.445 Y32.095 F4800
G92 E0.0000
G1 X79.586 Y32.095 E1.0472 F864
G1 X79.720 Y32.106 E1.0514
G1 X79.844 Y32.135 E1.0554
G1 X79.961 Y32.184 E1.0594
G1 X80.069 Y32.250 E1.0634
G1 X80.166 Y32.333 E1.0675
G1 X80.248 Y32.429 E1.0715
G1 X80.315 Y32.538 E1.0755
G1 X80.363 Y32.655 E1.0795
G1 X80.393 Y32.778 E1.0835
G1 X80.403 Y32.913 E1.0878
G1 X80.403 Y63.898 E2.0668
G1 X80.393 Y64.032 E2.0711
G1 X80.363 Y64.155 E2.0751
G1 X80.315 Y64.273 E2.0791
G1 X80.248 Y64.381 E2.0831
G1 X80.166 Y64.477 E2.0871
G1 X80.069 Y64.560 E2.0911
G1 X79.961 Y64.626 E2.0951
G1 X79.844 Y64.675 E2.0991
G1 X79.720 Y64.704 E2.1032
G1 X79.586 Y64.715 E2.1074
G1 X45.864 Y64.715 E3.1729
G1 X45.665 Y64.704 E3.1792
G1 X45.543 Y64.675 E3.1832
G1 X45.426 Y64.626 E3.1872
G1 X45.318 Y64.560 E3.1912
G1 X45.221 Y64.477 E3.1952
G1 X45.139 Y64.381 E3.1992
G1 X45.072 Y64.273 E3.2032
G1 X45.024 Y64.155 E3.2073
G1 X44.994 Y64.032 E3.2113
