; G-Code generated by Simplify3D(R) Version 4.1.2
; Sep 14, 2020 at 5:59:46 PM
; Settings Summary
;   processName,Process1-1-1
;   applyToModels,front(2)
;   profileName,Creality CR-10 (modified)
;   profileVersion,2020-02-10 19:41:20
;   baseProfile,
;   printMaterial,PetG
;   printQuality,Medium
;   printExtruders,
;   extruderName,Primary Extruder
;   extruderToolheadNumber,0
;   extruderDiameter,0.4
;   extruderAutoWidth,0
;   extruderWidth,0.39
;   extrusionMultiplier,1.04
;   extruderUseRetract,1
;   extruderRetractionDistance,3
;   extruderExtraRestartDistance,0
;   extruderRetractionZLift,0
;   extruderRetractionSpeed,1800
;   extruderUseCoasting,1
;   extruderCoastingDistance,0.05
;   extruderUseWipe,0
;   extruderWipeDistance,5
;   primaryExtruder,0
;   layerHeight,0.15
;   topSolidLayers,6
;   bottomSolidLayers,5
;   perimeterOutlines,3
;   printPerimetersInsideOut,1
;   startPointOption,2
;   startPointOriginX,0
;   startPointOriginY,0
;   sequentialIslands,1
;   spiralVaseMode,0
;   firstLayerHeightPercentage,130
;   firstLayerWidthPercentage,100
;   firstLayerUnderspeed,0.4
;   useRaft,0
;   raftExtruder,0
;   raftTopLayers,3
;   raftBaseLayers,2
;   raftOffset,3
;   raftSeparationDistance,0.14
;   raftTopInfill,100
;   aboveRaftSpeedMultiplier,0.3
;   useSkirt,1
;   skirtExtruder,0
;   skirtLayers,1
;   skirtOutlines,4
;   skirtOffset,2.6
;   usePrimePillar,0
;   primePillarExtruder,999
;   primePillarWidth,12
;   primePillarLocation,7
;   primePillarSpeedMultiplier,1
;   useOozeShield,0
;   oozeShieldExtruder,999
;   oozeShieldOffset,2
;   oozeShieldOutlines,1
;   oozeShieldSidewallShape,1
;   oozeShieldSidewallAngle,30
;   oozeShieldSpeedMultiplier,1
;   infillExtruder,0
;   internalInfillPattern,Triangular
;   externalInfillPattern,Rectilinear
;   infillPercentage,40
;   outlineOverlapPercentage,42
;   infillExtrusionWidthPercentage,120
;   minInfillLength,5
;   infillLayerInterval,1
;   internalInfillAngles,0,60,-60
;   overlapInternalInfillAngles,1
;   externalInfillAngles,45,-45
;   generateSupport,0
;   supportExtruder,0
;   supportInfillPercentage,30
;   supportExtraInflation,0
;   supportBaseLayers,0
;   denseSupportExtruder,0
;   denseSupportLayers,0
;   denseSupportInfillPercentage,70
;   supportLayerInterval,1
;   supportHorizontalPartOffset,0.3
;   supportUpperSeparationLayers,1
;   supportLowerSeparationLayers,1
;   supportType,0
;   supportGridSpacing,4
;   maxOverhangAngle,45
;   supportAngles,0
;   temperatureName,Primary Extruder,Heated Bed
;   temperatureNumber,0,0
;   temperatureSetpointCount,3,1
;   temperatureSetpointLayers,1,2,3,1
;   temperatureSetpointTemperatures,230,225,225,85
;   temperatureStabilizeAtStartup,1,1
;   temperatureHeatedBed,0,1
;   fanLayers,1,1
;   fanSpeeds,0,50
;   blipFanToFullPower,0
;   adjustSpeedForCooling,1
;   minSpeedLayerTime,15
;   minCoolingSpeedSlowdown,46
;   increaseFanForCooling,0
;   minFanLayerTime,45
;   maxCoolingFanSpeed,100
;   increaseFanForBridging,0
;   bridgingFanSpeed,100
;   use5D,1
;   relativeEdistances,0
;   allowEaxisZeroing,1
;   independentExtruderAxes,0
;   includeM10123,0
;   stickySupport,1
;   applyToolheadOffsets,0
;   gcodeXoffset,0
;   gcodeYoffset,0
;   gcodeZoffset,0
;   overrideMachineDefinition,1
;   machineTypeOverride,0
;   strokeXoverride,300
;   strokeYoverride,300
;   strokeZoverride,400
;   originOffsetXoverride,0
;   originOffsetYoverride,0
;   originOffsetZoverride,0
;   homeXdirOverride,-1
;   homeYdirOverride,-1
;   homeZdirOverride,-1
;   flipXoverride,1
;   flipYoverride,-1
;   flipZoverride,1
;   toolheadOffsets,0,0|0,0|0,0|0,0|0,0|0,0
;   overrideFirmwareConfiguration,1
;   firmwareTypeOverride,RepRap (Marlin/Repetier/Sprinter)
;   GPXconfigOverride,r2
;   baudRateOverride,115200
;   overridePrinterModels,1
;   printerModelsOverride
;   startingGcode,G28 ; home all axes,G1 Z5 F3000 ; lift,G1 X5 Y10 F1500 ; move to prime,G1 Z0.2 F3000 ; get ready to prime,G92 E0 ; reset extrusion distance,G1 Y80 E10 F600 ; prime nozzle,G1 Y100 F5000 ; quick wipe
;   layerChangeGcode,
;   retractionGcode,
;   toolChangeGcode,
;   endingGcode,G28 X0 ; home x axis,M106 S0 ; turn off cooling fan,M104 S0 ; turn off extruder,M140 S0 ; turn off bed,M84 ; disable motors
;   exportFileFormat,gcode
;   celebration,0
;   celebrationSong,Random Song
;   postProcessing,
;   defaultSpeed,3600
;   outlineUnderspeed,0.6
;   solidInfillUnderspeed,0.8
;   supportUnderspeed,0.8
;   rapidXYspeed,4800
;   rapidZspeed,1002
;   minBridgingArea,50
;   bridgingExtraInflation,0
;   bridgingExtrusionMultiplier,1
;   bridgingSpeedMultiplier,1
;   useFixedBridgingAngle,0
;   fixedBridgingAngle,0
;   applyBridgingToPerimeters,0
;   filamentDiameters,1.75|1.75|1.75|1.75|1.75|1.75
;   filamentPricesPerKg,46|46|46|46|46|46
;   filamentDensities,1.25|1.25|1.25|1.25|1.25|1.25
;   useMinPrintHeight,0
;   minPrintHeight,0
;   useMaxPrintHeight,1
;   maxPrintHeight,1.07
;   useDiaphragm,0
;   diaphragmLayerInterval,20
;   robustSlicing,1
;   mergeAllIntoSolid,0
;   onlyRetractWhenCrossingOutline,1
;   retractBetweenLayers,0
;   useRetractionMinTravel,0
;   retractionMinTravel,3
;   retractWhileWiping,0
;   onlyWipeOutlines,1
;   avoidCrossingOutline,1
;   maxMovementDetourFactor,21
;   toolChangeRetractionDistance,12
;   toolChangeExtraRestartDistance,-0.5
;   toolChangeRetractionSpeed,600
;   externalThinWallType,1
;   internalThinWallType,1
;   thinWallAllowedOverlapPercentage,97
;   singleExtrusionMinLength,0.01
;   singleExtrusionMinPrintingWidthPercentage,28
;   singleExtrusionMaxPrintingWidthPercentage,200
;   singleExtrusionEndpointExtension,0.2
;   horizontalSizeCompensation,0
G90
M82
M106 S128
M140 S85
M190 S85
M104 S230 T0
M109 S230 T0
G28 ; home all axes
G1 Z5 F3000 ; lift
G1 X5 Y10 F1500 ; move to prime
G1 Z0.2 F3000 ; get ready to prime
G92 E0 ; reset extrusion distance
G1 Y80 E10 F600 ; prime nozzle
G1 Y100 F5000 ; quick wipe
; process Process1-1-1
; layer 1, Z = 0.195
T0
G92 E0.0000
G1 E-3.0000 F1800
; feature skirt
; tool H0.195 W0.390
G1 Z0.195 F1002
G1 X37.989 Y28.926 F4800
G1 E0.0000 F1800
G92 E0.0000
G1 X38.604 Y28.195 E0.0314 F1440
G1 X39.200 Y27.714 E0.0566
G1 X39.954 Y27.315 E0.0846
G1 X40.575 Y27.108 E0.1062
G1 X41.184 Y27.012 E0.1264
G1 X41.494 Y26.987 E0.1367
G1 X79.321 Y26.987 E1.3805
G1 X79.661 Y27.017 E1.3918
G1 X80.439 Y27.152 E1.4177
G1 X81.311 Y27.532 E1.4490
G1 X82.389 Y28.351 E1.4935
G1 X83.096 Y29.357 E1.5339
G1 X83.449 Y30.475 E1.5725
G1 X83.541 Y31.075 E1.5924
G1 X83.541 Y66.534 E2.7584
G1 X83.517 Y66.844 E2.7687
G1 X83.410 Y67.516 E2.7910
G1 X83.140 Y68.249 E2.8167
G1 X82.591 Y69.145 E2.8513
G1 X81.940 Y69.800 E2.8816
G1 X81.063 Y70.348 E2.9157
G1 X80.347 Y70.621 E2.9408
G1 X79.661 Y70.740 E2.9637
G1 X79.320 Y70.770 E2.9750
G1 X41.192 Y70.764 E4.2287
G1 X40.427 Y70.612 E4.2544
G1 X39.521 Y70.237 E4.2866
G1 X38.872 Y69.803 E4.3123
G1 X38.281 Y69.212 E4.3398
G1 X37.914 Y68.707 E4.3603
G1 X37.570 Y68.032 E4.3852
G1 X37.377 Y67.438 E4.4058
G1 X37.283 Y66.844 E4.4255
G1 X37.259 Y66.534 E4.4358
G1 X37.264 Y30.999 E5.6042
G1 X37.362 Y30.383 E5.6248
G1 X37.617 Y29.596 E5.6520
G1 X37.989 Y28.926 E5.6772
G92 E0.0000
G1 E-3.0000 F1800
G1 X38.312 Y29.148 F4800
G1 E0.0000 F1800
G92 E0.0000
G1 X38.878 Y28.474 E0.0289 F1440
G1 X39.416 Y28.041 E0.0517
G1 X40.108 Y27.675 E0.0774
G1 X40.668 Y27.488 E0.0968
G1 X41.229 Y27.399 E0.1155
G1 X41.509 Y27.377 E0.1247
G1 X79.304 Y27.377 E1.3675
G1 X79.611 Y27.404 E1.3777
G1 X80.326 Y27.528 E1.4015
G1 X81.112 Y27.871 E1.4297
G1 X82.104 Y28.625 E1.4707
G1 X82.742 Y29.532 E1.5072
G1 X83.068 Y30.564 E1.5427
G1 X83.151 Y31.105 E1.5607
G1 X83.151 Y66.519 E2.7252
G1 X83.129 Y66.799 E2.7345
G1 X83.031 Y67.417 E2.7551
G1 X82.788 Y68.078 E2.7782
G1 X82.282 Y68.903 E2.8100
G1 X81.696 Y69.494 E2.8374
G1 X80.888 Y69.997 E2.8687
G1 X80.243 Y70.243 E2.8914
G1 X79.611 Y70.353 E2.9125
G1 X79.304 Y70.380 E2.9226
G1 X41.231 Y70.374 E4.1746
G1 X40.540 Y70.237 E4.1977
G1 X39.706 Y69.891 E4.2274
G1 X39.120 Y69.500 E4.2506
G1 X38.578 Y68.958 E4.2758
G1 X38.247 Y68.503 E4.2943
G1 X37.931 Y67.882 E4.3172
G1 X37.757 Y67.347 E4.3357
G1 X37.671 Y66.799 E4.3540
G1 X37.649 Y66.518 E4.3632
G1 X37.654 Y31.030 E5.5302
G1 X37.742 Y30.475 E5.5486
G1 X37.977 Y29.752 E5.5736
G1 X38.312 Y29.148 E5.5963
G92 E0.0000
G1 E-3.0000 F1800
G1 X38.635 Y29.370 F4800
G1 E0.0000 F1800
G92 E0.0000
G1 X39.153 Y28.754 E0.0265 F1440
G1 X39.631 Y28.368 E0.0467
G1 X40.262 Y28.035 E0.0701
G1 X40.760 Y27.868 E0.0874
G1 X41.275 Y27.787 E0.1046
G1 X41.525 Y27.767 E0.1128
G1 X79.287 Y27.767 E1.3545
G1 X79.561 Y27.791 E1.3636
G1 X80.213 Y27.904 E1.3853
G1 X80.914 Y28.210 E1.4105
G1 X81.820 Y28.899 E1.4479
G1 X82.388 Y29.707 E1.4804
G1 X82.687 Y30.653 E1.5130
G1 X82.761 Y31.135 E1.5290
G1 X82.761 Y66.503 E2.6921
G1 X82.742 Y66.753 E2.7003
G1 X82.652 Y67.318 E2.7191
G1 X82.435 Y67.907 E2.7397
G1 X81.973 Y68.660 E2.7688
G1 X81.451 Y69.187 E2.7932
G1 X80.714 Y69.646 E2.8217
G1 X80.139 Y69.865 E2.8420
G1 X79.560 Y69.966 E2.8613
G1 X79.287 Y69.990 E2.8703
G1 X41.269 Y69.984 E4.1204
G1 X40.654 Y69.862 E4.1410
G1 X39.891 Y69.546 E4.1682
G1 X39.369 Y69.197 E4.1889
G1 X38.876 Y68.704 E4.2118
G1 X38.581 Y68.298 E4.2283
G1 X38.293 Y67.733 E4.2491
G1 X38.138 Y67.256 E4.2656
G1 X38.058 Y66.753 E4.2824
G1 X38.039 Y66.503 E4.2906
G1 X38.044 Y31.061 E5.4561
G1 X38.122 Y30.566 E5.4725
G1 X38.336 Y29.908 E5.4953
G1 X38.635 Y29.370 E5.5155
G92 E0.0000
G1 E-3.0000 F1800
G1 X38.957 Y29.593 F4800
G1 E0.0000 F1800
G92 E0.0000
G1 X39.427 Y29.034 E0.0240 F1440
G1 X39.847 Y28.695 E0.0417
G1 X40.415 Y28.394 E0.0629
G1 X40.853 Y28.249 E0.0781
G1 X41.321 Y28.174 E0.0936
G1 X41.540 Y28.157 E0.1009
G1 X79.270 Y28.157 E1.3415
G1 X79.510 Y28.178 E1.3495
G1 X80.100 Y28.280 E1.3691
G1 X80.715 Y28.549 E1.3912
G1 X81.536 Y29.173 E1.4251
G1 X82.035 Y29.882 E1.4536
G1 X82.306 Y30.742 E1.4833
G1 X82.371 Y31.164 E1.4973
G1 X82.371 Y66.488 E2.6589
G1 X82.354 Y66.707 E2.6661
G1 X82.273 Y67.219 E2.6831
G1 X82.082 Y67.736 E2.7012
G1 X81.664 Y68.418 E2.7275
G1 X81.206 Y68.880 E2.7489
G1 X80.540 Y69.295 E2.7748
G1 X80.035 Y69.488 E2.7925
G1 X79.510 Y69.579 E2.8100
G1 X79.270 Y69.600 E2.8180
G1 X41.308 Y69.594 E4.0663
G1 X40.768 Y69.487 E4.0844
G1 X40.075 Y69.200 E4.1090
G1 X39.618 Y68.894 E4.1271
G1 X39.173 Y68.450 E4.1478
G1 X38.915 Y68.094 E4.1622
G1 X38.654 Y67.583 E4.1811
G1 X38.518 Y67.164 E4.1956
G1 X38.446 Y66.707 E4.2108
G1 X38.429 Y66.488 E4.2180
G1 X38.434 Y31.092 E5.3820
G1 X38.503 Y30.657 E5.3964
G1 X38.695 Y30.065 E5.4169
G1 X38.957 Y29.593 E5.4347
G92 E0.0000
G1 E-3.0000 F1800
; feature inner perimeter
G1 X41.444 Y31.281 F4800
G1 X41.424 Y31.343
G1 X41.424 Y31.366
G1 X42.204 Y31.927
G1 E0.0000 F1800
G92 E0.0000
G1 X78.601 Y31.927 E1.1968 F1152
G1 X78.601 Y65.830 E2.3116
G1 X42.199 Y65.825 E3.5086
G1 X42.204 Y31.977 E4.6216
G1 X42.204 Y31.927 F1152
G1 X41.814 Y31.537 F4800
G92 E0.0000
G1 X78.991 Y31.537 E1.2225 F1152
G1 X78.991 Y66.220 E2.3629
G1 X41.809 Y66.214 E3.5856
G1 X41.814 Y31.587 E4.7242
G1 X41.814 Y31.537 F1152
; feature outer perimeter
G1 X41.665 Y31.147 F4800
G92 E0.0000
G1 X79.133 Y31.147 E1.2320 F864
G1 X79.219 Y31.162 E1.2349
G1 X79.321 Y31.226 E1.2389
G1 X79.335 Y31.243 E1.2396
G1 X79.367 Y31.307 E1.2420
G1 X79.381 Y31.394 E1.2448
G1 X79.381 Y66.363 E2.3947
G1 X79.367 Y66.450 E2.3976
G1 X79.335 Y66.514 E2.4000
G1 X79.321 Y66.531 E2.4007
G1 X79.219 Y66.595 E2.4046
G1 X79.133 Y66.610 E2.4075
G1 X41.608 Y66.604 E3.6414
G1 X41.580 Y66.597 E3.6424
G1 X41.516 Y66.564 E3.6448
G1 X41.465 Y66.513 E3.6471
G1 X41.432 Y66.449 E3.6495
G1 X41.419 Y66.363 E3.6524
G1 X41.424 Y31.343 E4.8039
G1 X41.444 Y31.281 E4.8061
G1 X41.517 Y31.194 E4.8098
G1 X41.581 Y31.161 E4.8122
G1 X41.616 Y31.155 E4.8133
G1 X41.665 Y31.147 F864
; feature inner perimeter
G1 X53.770 Y41.938 F4800
G92 E0.0000
G1 X53.269 Y42.614 E0.0277 F1152
G1 X52.836 Y43.336 E0.0553
G1 X52.477 Y44.096 E0.0830
G1 X52.210 Y44.840 E0.1090
G1 X51.989 Y45.702 E0.1383
G1 X51.865 Y46.538 E0.1660
G1 X51.824 Y47.378 E0.1937
G1 X51.865 Y48.219 E0.2214
G1 X51.989 Y49.052 E0.2491
G1 X52.193 Y49.868 E0.2767
G1 X52.477 Y50.660 E0.3044
G1 X52.836 Y51.421 E0.3321
G1 X53.269 Y52.143 E0.3598
G1 X53.770 Y52.819 E0.3874
G1 X54.336 Y53.443 E0.4151
G1 X54.959 Y54.008 E0.4428
G1 X55.635 Y54.509 E0.4705
G1 X56.357 Y54.942 E0.4981
G1 X57.118 Y55.302 E0.5258
G1 X57.910 Y55.585 E0.5535
G1 X58.727 Y55.790 E0.5812
G1 X59.559 Y55.913 E0.6088
G1 X60.400 Y55.955 E0.6365
G1 X61.240 Y55.913 E0.6642
G1 X62.073 Y55.790 E0.6919
G1 X62.889 Y55.585 E0.7195
G1 X63.682 Y55.302 E0.7472
G1 X64.443 Y54.942 E0.7749
G1 X65.165 Y54.509 E0.8026
G1 X65.841 Y54.008 E0.8302
G1 X66.464 Y53.443 E0.8579
G1 X67.029 Y52.819 E0.8856
G1 X67.531 Y52.143 E0.9133
G1 X67.963 Y51.421 E0.9409
G1 X68.323 Y50.660 E0.9686
G1 X68.607 Y49.868 E0.9963
G1 X68.811 Y49.052 E1.0240
G1 X68.935 Y48.219 E1.0516
G1 X68.976 Y47.378 E1.0793
G1 X68.935 Y46.538 E1.1070
G1 X68.811 Y45.705 E1.1347
G1 X68.607 Y44.889 E1.1623
G1 X68.323 Y44.096 E1.1900
G1 X67.963 Y43.336 E1.2177
G1 X67.531 Y42.614 E1.2454
G1 X67.029 Y41.938 E1.2730
G1 X66.464 Y41.314 E1.3007
G1 X65.841 Y40.749 E1.3284
G1 X65.165 Y40.248 E1.3561
G1 X64.443 Y39.815 E1.3837
G1 X63.682 Y39.455 E1.4114
G1 X62.889 Y39.172 E1.4391
G1 X62.073 Y38.967 E1.4668
G1 X61.240 Y38.844 E1.4944
G1 X60.400 Y38.802 E1.5221
G1 X59.559 Y38.844 E1.5498
G1 X58.727 Y38.967 E1.5775
G1 X57.910 Y39.172 E1.6051
G1 X57.118 Y39.455 E1.6328
G1 X56.357 Y39.815 E1.6605
G1 X55.635 Y40.248 E1.6882
G1 X54.959 Y40.749 E1.7158
G1 X54.336 Y41.314 E1.7435
G1 X53.804 Y41.901 E1.7695
G1 X53.770 Y41.938 F1152
G1 X54.072 Y42.185 F4800
G92 E0.0000
G1 X53.594 Y42.831 E0.0264 F1152
G1 X53.181 Y43.520 E0.0528
G1 X52.837 Y44.246 E0.0792
G1 X52.584 Y44.955 E0.1040
G1 X52.372 Y45.780 E0.1320
G1 X52.254 Y46.576 E0.1585
G1 X52.214 Y47.378 E0.1849
G1 X52.254 Y48.181 E0.2113
G1 X52.371 Y48.975 E0.2377
G1 X52.567 Y49.755 E0.2641
G1 X52.837 Y50.511 E0.2906
G1 X53.181 Y51.237 E0.3170
G1 X53.594 Y51.926 E0.3434
G1 X54.072 Y52.571 E0.3698
G1 X54.612 Y53.167 E0.3962
G1 X55.207 Y53.706 E0.4226
G1 X55.852 Y54.185 E0.4490
G1 X56.541 Y54.598 E0.4755
G1 X57.267 Y54.941 E0.5019
G1 X58.024 Y55.212 E0.5283
G1 X58.803 Y55.407 E0.5547
G1 X59.598 Y55.525 E0.5811
G1 X60.400 Y55.564 E0.6075
G1 X61.202 Y55.525 E0.6339
G1 X61.997 Y55.407 E0.6604
G1 X62.776 Y55.212 E0.6868
G1 X63.532 Y54.941 E0.7132
G1 X64.259 Y54.598 E0.7396
G1 X64.948 Y54.185 E0.7660
G1 X65.593 Y53.706 E0.7924
G1 X66.188 Y53.167 E0.8189
G1 X66.728 Y52.571 E0.8453
G1 X67.206 Y51.926 E0.8717
G1 X67.619 Y51.237 E0.8981
G1 X67.963 Y50.511 E0.9245
G1 X68.233 Y49.755 E0.9509
G1 X68.428 Y48.975 E0.9773
G1 X68.546 Y48.181 E1.0038
G1 X68.586 Y47.378 E1.0302
G1 X68.546 Y46.576 E1.0566
G1 X68.428 Y45.781 E1.0830
G1 X68.233 Y45.002 E1.1094
G1 X67.963 Y44.246 E1.1358
G1 X67.619 Y43.520 E1.1622
G1 X67.206 Y42.831 E1.1887
G1 X66.728 Y42.185 E1.2151
G1 X66.188 Y41.590 E1.2415
G1 X65.593 Y41.051 E1.2679
G1 X64.948 Y40.572 E1.2943
G1 X64.259 Y40.159 E1.3207
G1 X63.532 Y39.816 E1.3472
G1 X62.776 Y39.545 E1.3736
G1 X61.997 Y39.350 E1.4000
G1 X61.202 Y39.232 E1.4264
G1 X60.400 Y39.193 E1.4528
G1 X59.598 Y39.232 E1.4792
G1 X58.803 Y39.350 E1.5056
G1 X58.024 Y39.545 E1.5321
G1 X57.267 Y39.816 E1.5585
G1 X56.541 Y40.159 E1.5849
G1 X55.852 Y40.572 E1.6113
G1 X55.207 Y41.051 E1.6377
G1 X54.612 Y41.590 E1.6641
G1 X54.106 Y42.148 E1.6889
G1 X54.072 Y42.185 F1152
; feature outer perimeter
G1 X54.374 Y42.433 F4800
G92 E0.0000
G1 X53.918 Y43.048 E0.0252 F864
G1 X53.525 Y43.704 E0.0503
G1 X53.198 Y44.395 E0.0755
G1 X52.957 Y45.069 E0.0990
G1 X52.755 Y45.857 E0.1257
G1 X52.642 Y46.614 E0.1509
G1 X52.605 Y47.378 E0.1761
G1 X52.642 Y48.142 E0.2012
G1 X52.754 Y48.899 E0.2264
G1 X52.940 Y49.641 E0.2515
G1 X53.198 Y50.362 E0.2767
G1 X53.525 Y51.053 E0.3019
G1 X53.918 Y51.709 E0.3270
G1 X54.374 Y52.324 E0.3522
G1 X54.888 Y52.891 E0.3773
G1 X55.455 Y53.404 E0.4025
G1 X56.069 Y53.860 E0.4276
G1 X56.725 Y54.253 E0.4528
G1 X57.417 Y54.580 E0.4779
G1 X58.137 Y54.838 E0.5031
G1 X58.879 Y55.024 E0.5282
G1 X59.636 Y55.136 E0.5534
G1 X60.400 Y55.174 E0.5786
